data/img/material/black/content-copy.svg

<svg viewBox="0 0 24 24">
    <path d="M19,21H8V7H19M19,5H8C6.9,5 6,5.9 6,7V21C6,22.1 6.9,23 8,23H19C20.1,23 21,22.1 21,21V7C21,5.9 20.1,5 19,5M16,1H4C2.9,1 2,1.9 2,3V17H4V3H16V1Z"/>
</svg>

<svg xmlns="http://www.w3.org/2000/svg" viewBox="0 0 24 24">
    <path d="M19 21H8V7h11zM8 5A2 2 0 006 7v14a2 2 0 002 2h11a2 2 0 002-2V7a2 2 0 00-2-2zM16 3V1H4A2 2 0 002 3v14h2V3z"/>
</svg>
